( Made using CamBam - http://www.cambam.co.uk )
( back_Box 7/14/2020 4:42:04 PM )
( Post processor: Default )
( T2 : 2.0 )
G21 G90 G64 G40
G0 Z10.0
( T2 : 2.0 )
T2 M6
( Contour1 )
G17
M3 S3000
G0 X275.6 Y580.0
G0 Z1.0
G1 F300.0 Z-3.5
G1 F800.0 X293.6
G1 Y572.0
G1 X275.6
G1 Y580.0
G0 Z10.0
G0 X304.8159 Y553.1691
G0 Z1.0
G1 F300.0 Z-3.5
G2 F800.0 X304.875 Y553.2165 I0.1841 J-0.1691
G2 X305.25 Y553.0 I0.125 J-0.2165
G2 X304.875 Y552.7835 I-0.25 J0.0
G2 X304.8159 Y553.1691 I0.125 J0.2165
G0 Z10.0
G0 X313.9529 Y600.7545
G0 Z1.0
G1 F300.0 Z-3.5
G2 F800.0 X313.875 Y600.7835 I0.0471 J0.2455
G2 Y601.2165 I0.125 J0.2165
G2 X314.25 Y601.0 I0.125 J-0.2165
G2 X313.9529 Y600.7545 I-0.25 J0.0
G0 Z10.0
G0 X305.0456 Y648.7542
G0 Z1.0
G1 F300.0 Z-3.5
G2 F800.0 X304.875 Y648.7835 I-0.0456 J0.2458
G2 Y649.2165 I0.125 J0.2165
G2 X305.25 Y649.0 I0.125 J-0.2165
G2 X305.0456 Y648.7542 I-0.25 J0.0
G0 Z10.0
G0 X293.6 Y668.0
G0 Z1.0
G1 F300.0 Z-3.5
G1 F800.0 X275.6
G1 Y676.0
G1 X293.6
G1 Y668.0
G0 Z10.0
G0 X313.7986 Y682.8519
G0 Z1.0
G1 F300.0 Z-3.5
G2 F800.0 X313.875 Y683.2165 I0.2014 J0.1481
G2 X314.25 Y683.0 I0.125 J-0.2165
G2 X313.875 Y682.7835 I-0.25 J0.0
G2 X313.7986 Y682.8519 I0.125 J0.2165
G0 Z10.0
G0 X208.2381 Y649.0762
G0 Z1.0
G1 F300.0 Z-3.5
G2 F800.0 X208.25 Y649.0 I-0.2381 J-0.0762
G2 X207.875 Y648.7835 I-0.25 J0.0
G2 Y649.2165 I0.125 J0.2165
G2 X208.2381 Y649.0762 I0.125 J-0.2165
G0 Z10.0
G0 X184.1453 Y682.7966
G0 Z1.0
G1 F300.0 Z-3.5
G2 F800.0 X183.875 Y682.7835 I-0.1453 J0.2034
G2 Y683.2165 I0.125 J0.2165
G2 X184.25 Y683.0 I0.125 J-0.2165
G2 X184.1453 Y682.7966 I-0.25 J0.0
G0 Z10.0
G0 X149.6 Y676.0
G0 Z1.0
G1 F300.0 Z-3.5
G1 F800.0 Y668.0
G1 X131.6
G1 Y676.0
G1 X149.6
G0 Z10.0
G0 X160.9028 Y649.2303
G0 Z1.0
G1 F300.0 Z-3.5
G2 F800.0 X161.25 Y649.0 I0.0972 J-0.2303
G2 X160.875 Y648.7835 I-0.25 J0.0
G2 Y649.2165 I0.125 J0.2165
G2 X160.9028 Y649.2303 I0.125 J-0.2165
G0 Z10.0
G0 X183.892 Y601.2255
G0 Z1.0
G1 F300.0 Z-3.5
G2 F800.0 X184.25 Y601.0 I0.108 J-0.2255
G2 X183.875 Y600.7835 I-0.25 J0.0
G2 Y601.2165 I0.125 J0.2165
G2 X183.892 Y601.2255 I0.125 J-0.2165
G0 Z10.0
G0 X149.6 Y580.0
G0 Z1.0
G1 F300.0 Z-3.5
G1 F800.0 Y572.0
G1 X131.6
G1 Y580.0
G1 X149.6
G0 Z10.0
G0 X160.9028 Y553.2303
G0 Z1.0
G1 F300.0 Z-3.5
G2 F800.0 X161.25 Y553.0 I0.0972 J-0.2303
G2 X160.875 Y552.7835 I-0.25 J0.0
G2 Y553.2165 I0.125 J0.2165
G2 X160.9028 Y553.2303 I0.125 J-0.2165
G0 Z10.0
G0 X207.75 Y553.0012
G0 Z1.0
G1 F300.0 Z-3.5
G2 F800.0 X207.875 Y553.2165 I0.25 J-0.0012
G2 X208.25 Y553.0 I0.125 J-0.2165
G2 X207.875 Y552.7835 I-0.25 J0.0
G2 X207.75 Y553.0012 I0.125 J0.2165
G0 Z10.0
G0 X184.1109 Y505.2241
G0 Z1.0
G1 F300.0 Z-3.5
G2 F800.0 X184.25 Y505.0 I-0.1109 J-0.2241
G2 X183.875 Y504.7835 I-0.25 J0.0
G2 Y505.2165 I0.125 J0.2165
G2 X184.1109 Y505.2241 I0.125 J-0.2165
G0 Z10.0
G0 X149.6 Y484.0
G0 Z1.0
G1 F300.0 Z-3.5
G1 F800.0 Y476.0
G1 X131.6
G1 Y484.0
G1 X149.6
G0 Z10.0
G0 X160.9028 Y457.2303
G0 Z1.0
G1 F300.0 Z-3.5
G2 F800.0 X161.25 Y457.0 I0.0972 J-0.2303
G2 X160.875 Y456.7835 I-0.25 J0.0
G2 Y457.2165 I0.125 J0.2165
G2 X160.9028 Y457.2303 I0.125 J-0.2165
G0 Z10.0
G0 X207.75 Y457.0012
G0 Z1.0
G1 F300.0 Z-3.5
G2 F800.0 X207.875 Y457.2165 I0.25 J-0.0012
G2 X208.25 Y457.0 I0.125 J-0.2165
G2 X207.875 Y456.7835 I-0.25 J0.0
G2 X207.75 Y457.0012 I0.125 J0.2165
G0 Z10.0
G0 X184.1109 Y409.2241
G0 Z1.0
G1 F300.0 Z-3.5
G2 F800.0 X184.25 Y409.0 I-0.1109 J-0.2241
G2 X183.875 Y408.7835 I-0.25 J0.0
G2 Y409.2165 I0.125 J0.2165
G2 X184.1109 Y409.2241 I0.125 J-0.2165
G0 Z10.0
G0 X149.6 Y388.0
G0 Z1.0
G1 F300.0 Z-3.5
G1 F800.0 Y380.0
G1 X131.6
G1 Y388.0
G1 X149.6
G0 Z10.0
G0 X160.9028 Y361.2303
G0 Z1.0
G1 F300.0 Z-3.5
G2 F800.0 X161.25 Y361.0 I0.0972 J-0.2303
G2 X160.875 Y360.7835 I-0.25 J0.0
G2 Y361.2165 I0.125 J0.2165
G2 X160.9028 Y361.2303 I0.125 J-0.2165
G0 Z10.0
G0 X207.75 Y361.0012
G0 Z1.0
G1 F300.0 Z-3.5
G2 F800.0 X207.875 Y361.2165 I0.25 J-0.0012
G2 X208.25 Y361.0 I0.125 J-0.2165
G2 X207.875 Y360.7835 I-0.25 J0.0
G2 X207.75 Y361.0012 I0.125 J0.2165
G0 Z10.0
G0 X184.1109 Y313.2241
G0 Z1.0
G1 F300.0 Z-3.5
G2 F800.0 X184.25 Y313.0 I-0.1109 J-0.2241
G2 X183.875 Y312.7835 I-0.25 J0.0
G2 Y313.2165 I0.125 J0.2165
G2 X184.1109 Y313.2241 I0.125 J-0.2165
G0 Z10.0
G0 X149.6 Y292.0
G0 Z1.0
G1 F300.0 Z-3.5
G1 F800.0 Y284.0
G1 X131.6
G1 Y292.0
G1 X149.6
G0 Z10.0
G0 X160.9028 Y265.2303
G0 Z1.0
G1 F300.0 Z-3.5
G2 F800.0 X161.25 Y265.0 I0.0972 J-0.2303
G2 X160.875 Y264.7835 I-0.25 J0.0
G2 Y265.2165 I0.125 J0.2165
G2 X160.9028 Y265.2303 I0.125 J-0.2165
G0 Z10.0
G0 X207.75 Y265.0012
G0 Z1.0
G1 F300.0 Z-3.5
G2 F800.0 X207.875 Y265.2165 I0.25 J-0.0012
G2 X208.25 Y265.0 I0.125 J-0.2165
G2 X207.875 Y264.7835 I-0.25 J0.0
G2 X207.75 Y265.0012 I0.125 J0.2165
G0 Z10.0
G0 X184.1109 Y217.2241
G0 Z1.0
G1 F300.0 Z-3.5
G2 F800.0 X184.25 Y217.0 I-0.1109 J-0.2241
G2 X183.875 Y216.7835 I-0.25 J0.0
G2 Y217.2165 I0.125 J0.2165
G2 X184.1109 Y217.2241 I0.125 J-0.2165
G0 Z10.0
G0 X149.6 Y196.0
G0 Z1.0
G1 F300.0 Z-3.5
G1 F800.0 Y188.0
G1 X131.6
G1 Y196.0
G1 X149.6
G0 Z10.0
G0 X160.9028 Y169.2303
G0 Z1.0
G1 F300.0 Z-3.5
G2 F800.0 X161.25 Y169.0 I0.0972 J-0.2303
G2 X160.875 Y168.7835 I-0.25 J0.0
G2 Y169.2165 I0.125 J0.2165
G2 X160.9028 Y169.2303 I0.125 J-0.2165
G0 Z10.0
G0 X207.75 Y169.0012
G0 Z1.0
G1 F300.0 Z-3.5
G2 F800.0 X207.875 Y169.2165 I0.25 J-0.0012
G2 X208.25 Y169.0 I0.125 J-0.2165
G2 X207.875 Y168.7835 I-0.25 J0.0
G2 X207.75 Y169.0012 I0.125 J0.2165
G0 Z10.0
G0 X184.1109 Y121.2241
G0 Z1.0
G1 F300.0 Z-3.5
G2 F800.0 X184.25 Y121.0 I-0.1109 J-0.2241
G2 X183.875 Y120.7835 I-0.25 J0.0
G2 Y121.2165 I0.125 J0.2165
G2 X184.1109 Y121.2241 I0.125 J-0.2165
G0 Z10.0
G0 X149.6 Y100.0
G0 Z1.0
G1 F300.0 Z-3.5
G1 F800.0 Y92.0
G1 X131.6
G1 Y100.0
G1 X149.6
G0 Z10.0
G0 X160.9028 Y73.2303
G0 Z1.0
G1 F300.0 Z-3.5
G2 F800.0 X161.25 Y73.0 I0.0972 J-0.2303
G2 X160.875 Y72.7835 I-0.25 J0.0
G2 Y73.2165 I0.125 J0.2165
G2 X160.9028 Y73.2303 I0.125 J-0.2165
G0 Z10.0
G0 X183.8602 Y39.2072
G0 Z1.0
G1 F300.0 Z-3.5
G2 F800.0 X183.875 Y39.2165 I0.1398 J-0.2072
G2 X184.25 Y39.0 I0.125 J-0.2165
G2 X183.875 Y38.7835 I-0.25 J0.0
G2 X183.8602 Y39.2072 I0.125 J0.2165
G0 Z10.0
G0 X207.8547 Y72.7966
G0 Z1.0
G1 F300.0 Z-3.5
G2 F800.0 X207.875 Y73.2165 I0.1453 J0.2034
G2 X208.25 Y73.0 I0.125 J-0.2165
G2 X207.875 Y72.7835 I-0.25 J0.0
G2 X207.8547 Y72.7966 I0.125 J0.2165
G0 Z10.0
G0 X215.6769 Y68.1903
G0 Z1.0
G1 F300.0 Z-3.5
G2 F800.0 X215.8125 Y68.3248 I0.3231 J-0.1903
G2 X216.375 Y68.0 I0.1875 J-0.3248
G2 X215.8125 Y67.6752 I-0.375 J0.0
G2 X215.6769 Y68.1903 I0.1875 J0.3248
G0 Z10.0
G0 X219.0
G0 Z1.0
G1 F300.0 Z-3.5
G1 F800.0 Y70.0
G1 X271.0
G1 Y66.0
G1 X219.0
G1 Y68.1903
G0 Z10.0
G0 X273.625 Y68.0013
G0 Z1.0
G1 F300.0 Z-3.5
G2 F800.0 X273.8125 Y68.3248 I0.375 J-0.0013
G2 X274.375 Y68.0 I0.1875 J-0.3248
G2 X273.8125 Y67.6752 I-0.375 J0.0
G2 X273.625 Y68.0013 I0.1875 J0.3248
G0 Z10.0
G0 X275.6 Y92.0
G0 Z1.0
G1 F300.0 Z-3.5
G1 F800.0 Y100.0
G1 X293.6
G1 Y92.0
G1 X275.6
G0 Z10.0
G0 X304.79 Y73.1357
G0 Z1.0
G1 F300.0 Z-3.5
G2 F800.0 X304.875 Y73.2165 I0.21 J-0.1357
G2 X305.25 Y73.0 I0.125 J-0.2165
G2 X304.875 Y72.7835 I-0.25 J0.0
G2 X304.79 Y73.1357 I0.125 J0.2165
G0 Z10.0
G0 X313.9349 Y39.2414
G0 Z1.0
G1 F300.0 Z-3.5
G2 F800.0 X314.25 Y39.0 I0.0651 J-0.2414
G2 X313.875 Y38.7835 I-0.25 J0.0
G2 Y39.2165 I0.125 J0.2165
G2 X313.9349 Y39.2414 I0.125 J-0.2165
G0 Z10.0
G0 X313.9998 Y120.75
G0 Z1.0
G1 F300.0 Z-3.5
G2 F800.0 X313.875 Y120.7835 I0.0002 J0.25
G2 Y121.2165 I0.125 J0.2165
G2 X314.25 Y121.0 I0.125 J-0.2165
G2 X313.9998 Y120.75 I-0.25 J0.0
G0 Z10.0
G0 X305.0458 Y168.7542
G0 Z1.0
G1 F300.0 Z-3.5
G2 F800.0 X304.875 Y168.7835 I-0.0458 J0.2458
G2 Y169.2165 I0.125 J0.2165
G2 X305.25 Y169.0 I0.125 J-0.2165
G2 X305.0458 Y168.7542 I-0.25 J0.0
G0 Z10.0
G0 X293.6 Y188.0
G0 Z1.0
G1 F300.0 Z-3.5
G1 F800.0 X275.6
G1 Y196.0
G1 X293.6
G1 Y188.0
G0 Z10.0
G0 X313.8562 Y216.7955
G0 Z1.0
G1 F300.0 Z-3.5
G2 F800.0 X313.875 Y217.2165 I0.1438 J0.2045
G2 X314.25 Y217.0 I0.125 J-0.2165
G2 X313.875 Y216.7835 I-0.25 J0.0
G2 X313.8562 Y216.7955 I0.125 J0.2165
G0 Z10.0
G0 X305.0452 Y264.7541
G0 Z1.0
G1 F300.0 Z-3.5
G2 F800.0 X304.875 Y264.7835 I-0.0452 J0.2459
G2 Y265.2165 I0.125 J0.2165
G2 X305.25 Y265.0 I0.125 J-0.2165
G2 X305.0452 Y264.7541 I-0.25 J0.0
G0 Z10.0
G0 X293.6 Y284.0
G0 Z1.0
G1 F300.0 Z-3.5
G1 F800.0 X275.6
G1 Y292.0
G1 X293.6
G1 Y284.0
G0 Z10.0
G0 X313.8562 Y312.7955
G0 Z1.0
G1 F300.0 Z-3.5
G2 F800.0 X313.875 Y313.2165 I0.1438 J0.2045
G2 X314.25 Y313.0 I0.125 J-0.2165
G2 X313.875 Y312.7835 I-0.25 J0.0
G2 X313.8562 Y312.7955 I0.125 J0.2165
G0 Z10.0
G0 X305.0452 Y360.7541
G0 Z1.0
G1 F300.0 Z-3.5
G2 F800.0 X304.875 Y360.7835 I-0.0452 J0.2459
G2 Y361.2165 I0.125 J0.2165
G2 X305.25 Y361.0 I0.125 J-0.2165
G2 X305.0452 Y360.7541 I-0.25 J0.0
G0 Z10.0
G0 X293.6 Y380.0
G0 Z1.0
G1 F300.0 Z-3.5
G1 F800.0 X275.6
G1 Y388.0
G1 X293.6
G1 Y380.0
G0 Z10.0
G0 X313.8562 Y408.7955
G0 Z1.0
G1 F300.0 Z-3.5
G2 F800.0 X313.875 Y409.2165 I0.1438 J0.2045
G2 X314.25 Y409.0 I0.125 J-0.2165
G2 X313.875 Y408.7835 I-0.25 J0.0
G2 X313.8562 Y408.7955 I0.125 J0.2165
G0 Z10.0
G0 X305.0452 Y456.7541
G0 Z1.0
G1 F300.0 Z-3.5
G2 F800.0 X304.875 Y456.7835 I-0.0452 J0.2459
G2 Y457.2165 I0.125 J0.2165
G2 X305.25 Y457.0 I0.125 J-0.2165
G2 X305.0452 Y456.7541 I-0.25 J0.0
G0 Z10.0
G0 X293.6 Y476.0
G0 Z1.0
G1 F300.0 Z-3.5
G1 F800.0 X275.6
G1 Y484.0
G1 X293.6
G1 Y476.0
G0 Z10.0
G0 X313.8562 Y504.7955
G0 Z1.0
G1 F300.0 Z-3.5
G2 F800.0 X313.875 Y505.2165 I0.1438 J0.2045
G2 X314.25 Y505.0 I0.125 J-0.2165
G2 X313.875 Y504.7835 I-0.25 J0.0
G2 X313.8562 Y504.7955 I0.125 J0.2165
G0 Z10.0
G0 X64.2455 Y457.047
G0 Z1.0
G1 F300.0 Z-3.5
G2 F800.0 X64.25 Y457.0 I-0.2455 J-0.047
G2 X63.875 Y456.7835 I-0.25 J0.0
G2 Y457.2165 I0.125 J0.2165
G2 X64.2455 Y457.047 I0.125 J-0.2165
G0 Z10.0
G0 X54.0522 Y504.7555
G0 Z1.0
G1 F300.0 Z-3.5
G2 F800.0 X53.875 Y504.7835 I-0.0522 J0.2445
G2 Y505.2165 I0.125 J0.2165
G2 X54.25 Y505.0 I0.125 J-0.2165
G2 X54.0522 Y504.7555 I-0.25 J0.0
G0 Z10.0
G0 X63.9495 Y552.7552
G0 Z1.0
G1 F300.0 Z-3.5
G2 F800.0 X63.875 Y552.7835 I0.0505 J0.2448
G2 Y553.2165 I0.125 J0.2165
G2 X64.25 Y553.0 I0.125 J-0.2165
G2 X63.9495 Y552.7552 I-0.25 J0.0
G0 Z10.0
G0 X54.0505 Y600.7552
G0 Z1.0
G1 F300.0 Z-3.5
G2 F800.0 X53.875 Y600.7835 I-0.0505 J0.2448
G2 Y601.2165 I0.125 J0.2165
G2 X54.25 Y601.0 I0.125 J-0.2165
G2 X54.0505 Y600.7552 I-0.25 J0.0
G0 Z10.0
G0 X63.9495 Y648.7552
G0 Z1.0
G1 F300.0 Z-3.5
G2 F800.0 X63.875 Y648.7835 I0.0505 J0.2448
G2 Y649.2165 I0.125 J0.2165
G2 X64.25 Y649.0 I0.125 J-0.2165
G2 X63.9495 Y648.7552 I-0.25 J0.0
G0 Z10.0
G0 X54.0698 Y682.7599
G0 Z1.0
G1 F300.0 Z-3.5
G2 F800.0 X53.875 Y682.7835 I-0.0698 J0.2401
G2 Y683.2165 I0.125 J0.2165
G2 X54.25 Y683.0 I0.125 J-0.2165
G2 X54.0698 Y682.7599 I-0.25 J0.0
G0 Z10.0
G0 X54.0001 Y409.25
G0 Z1.0
G1 F300.0 Z-3.5
G2 F800.0 X54.25 Y409.0 I-0.0001 J-0.25
G2 X53.875 Y408.7835 I-0.25 J0.0
G2 Y409.2165 I0.125 J0.2165
G2 X54.0001 Y409.25 I0.125 J-0.2165
G0 Z10.0
G0 X63.9493 Y361.2448
G0 Z1.0
G1 F300.0 Z-3.5
G2 F800.0 X64.25 Y361.0 I0.0507 J-0.2448
G2 X63.875 Y360.7835 I-0.25 J0.0
G2 Y361.2165 I0.125 J0.2165
G2 X63.9493 Y361.2448 I0.125 J-0.2165
G0 Z10.0
G0 X54.0505 Y313.2448
G0 Z1.0
G1 F300.0 Z-3.5
G2 F800.0 X54.25 Y313.0 I-0.0505 J-0.2448
G2 X53.875 Y312.7835 I-0.25 J0.0
G2 Y313.2165 I0.125 J0.2165
G2 X54.0505 Y313.2448 I0.125 J-0.2165
G0 Z10.0
G0 X63.9495 Y265.2448
G0 Z1.0
G1 F300.0 Z-3.5
G2 F800.0 X64.25 Y265.0 I0.0505 J-0.2448
G2 X63.875 Y264.7835 I-0.25 J0.0
G2 Y265.2165 I0.125 J0.2165
G2 X63.9495 Y265.2448 I0.125 J-0.2165
G0 Z10.0
G0 X54.0505 Y217.2448
G0 Z1.0
G1 F300.0 Z-3.5
G2 F800.0 X54.25 Y217.0 I-0.0505 J-0.2448
G2 X53.875 Y216.7835 I-0.25 J0.0
G2 Y217.2165 I0.125 J0.2165
G2 X54.0505 Y217.2448 I0.125 J-0.2165
G0 Z10.0
G0 X63.9495 Y169.2448
G0 Z1.0
G1 F300.0 Z-3.5
G2 F800.0 X64.25 Y169.0 I0.0505 J-0.2448
G2 X63.875 Y168.7835 I-0.25 J0.0
G2 Y169.2165 I0.125 J0.2165
G2 X63.9495 Y169.2448 I0.125 J-0.2165
G0 Z10.0
G0 X54.0505 Y121.2448
G0 Z1.0
G1 F300.0 Z-3.5
G2 F800.0 X54.25 Y121.0 I-0.0505 J-0.2448
G2 X53.875 Y120.7835 I-0.25 J0.0
G2 Y121.2165 I0.125 J0.2165
G2 X54.0505 Y121.2448 I0.125 J-0.2165
G0 Z10.0
G0 X63.9495 Y73.2448
G0 Z1.0
G1 F300.0 Z-3.5
G2 F800.0 X64.25 Y73.0 I0.0505 J-0.2448
G2 X63.875 Y72.7835 I-0.25 J0.0
G2 Y73.2165 I0.125 J0.2165
G2 X63.9495 Y73.2448 I0.125 J-0.2165
G0 Z10.0
G0 X54.0698 Y39.2401
G0 Z1.0
G1 F300.0 Z-3.5
G2 F800.0 X54.25 Y39.0 I-0.0698 J-0.2401
G2 X53.875 Y38.7835 I-0.25 J0.0
G2 Y39.2165 I0.125 J0.2165
G2 X54.0698 Y39.2401 I0.125 J-0.2165
G0 Z10.0
M5
M30
