( Made using CamBam - http://www.cambam.co.uk )
( front_Box 7/14/2020 5:44:20 PM )
( Post processor: Default )
( T2 : 2.0 )
G21 G90 G64 G40
G0 Z10.0
( T2 : 2.0 )
T2 M6
( Perçage1 )
G17
M3 S3000
G0 X14.0 Y576.0
G0 Z10.0
G0 X14.25 Y576.0
G0 Z1.0
G1 F300.0 Z0.0
G2 F800.0 X13.875 Y575.7835 Z-0.6667 I-0.25 J0.0
G2 Y576.2165 Z-1.3333 I0.125 J0.2165
G2 X14.25 Y576.0 Z-2.0 I0.125 J-0.2165
G2 X13.875 Y575.7835 Z-2.6667 I-0.25 J0.0
G2 Y576.2165 Z-3.3333 I0.125 J0.2165
G2 X14.0 Y576.25 Z-3.5 I0.125 J-0.2165
G2 X14.2165 Y575.875 I0.0 J-0.25
G2 X13.7835 I-0.2165 J0.125
G2 X14.0 Y576.25 I0.2165 J0.125
G0 Z10.0
G0 X14.25 Y658.0
G0 Z1.0
G1 F300.0 Z0.0
G2 F800.0 X13.875 Y657.7835 Z-0.6667 I-0.25 J0.0
G2 Y658.2165 Z-1.3333 I0.125 J0.2165
G2 X14.25 Y658.0 Z-2.0 I0.125 J-0.2165
G2 X13.875 Y657.7835 Z-2.6667 I-0.25 J0.0
G2 Y658.2165 Z-3.3333 I0.125 J0.2165
G2 X14.0 Y658.25 Z-3.5 I0.125 J-0.2165
G2 X14.2165 Y657.875 I0.0 J-0.25
G2 X13.7835 I-0.2165 J0.125
G2 X14.0 Y658.25 I0.2165 J0.125
G0 Z10.0
G0 X144.25 Y658.0
G0 Z1.0
G1 F300.0 Z0.0
G2 F800.0 X143.875 Y657.7835 Z-0.6667 I-0.25 J0.0
G2 Y658.2165 Z-1.3333 I0.125 J0.2165
G2 X144.25 Y658.0 Z-2.0 I0.125 J-0.2165
G2 X143.875 Y657.7835 Z-2.6667 I-0.25 J0.0
G2 Y658.2165 Z-3.3333 I0.125 J0.2165
G2 X144.0 Y658.25 Z-3.5 I0.125 J-0.2165
G2 X144.2165 Y657.875 I0.0 J-0.25
G2 X143.7835 I-0.2165 J0.125
G2 X144.0 Y658.25 I0.2165 J0.125
G0 Z10.0
G0 X144.25 Y576.0
G0 Z1.0
G1 F300.0 Z0.0
G2 F800.0 X143.875 Y575.7835 Z-0.6667 I-0.25 J0.0
G2 Y576.2165 Z-1.3333 I0.125 J0.2165
G2 X144.25 Y576.0 Z-2.0 I0.125 J-0.2165
G2 X143.875 Y575.7835 Z-2.6667 I-0.25 J0.0
G2 Y576.2165 Z-3.3333 I0.125 J0.2165
G2 X144.0 Y576.25 Z-3.5 I0.125 J-0.2165
G2 X144.2165 Y575.875 I0.0 J-0.25
G2 X143.7835 I-0.2165 J0.125
G2 X144.0 Y576.25 I0.2165 J0.125
G0 Z10.0
G0 X144.25 Y480.0
G0 Z1.0
G1 F300.0 Z0.0
G2 F800.0 X143.875 Y479.7835 Z-0.6667 I-0.25 J0.0
G2 Y480.2165 Z-1.3333 I0.125 J0.2165
G2 X144.25 Y480.0 Z-2.0 I0.125 J-0.2165
G2 X143.875 Y479.7835 Z-2.6667 I-0.25 J0.0
G2 Y480.2165 Z-3.3333 I0.125 J0.2165
G2 X144.0 Y480.25 Z-3.5 I0.125 J-0.2165
G2 X144.2165 Y479.875 I0.0 J-0.25
G2 X143.7835 I-0.2165 J0.125
G2 X144.0 Y480.25 I0.2165 J0.125
G0 Z10.0
G0 X144.25 Y384.0
G0 Z1.0
G1 F300.0 Z0.0
G2 F800.0 X143.875 Y383.7835 Z-0.6667 I-0.25 J0.0
G2 Y384.2165 Z-1.3333 I0.125 J0.2165
G2 X144.25 Y384.0 Z-2.0 I0.125 J-0.2165
G2 X143.875 Y383.7835 Z-2.6667 I-0.25 J0.0
G2 Y384.2165 Z-3.3333 I0.125 J0.2165
G2 X144.0 Y384.25 Z-3.5 I0.125 J-0.2165
G2 X144.2165 Y383.875 I0.0 J-0.25
G2 X143.7835 I-0.2165 J0.125
G2 X144.0 Y384.25 I0.2165 J0.125
G0 Z10.0
G0 X144.25 Y288.0
G0 Z1.0
G1 F300.0 Z0.0
G2 F800.0 X143.875 Y287.7835 Z-0.6667 I-0.25 J0.0
G2 Y288.2165 Z-1.3333 I0.125 J0.2165
G2 X144.25 Y288.0 Z-2.0 I0.125 J-0.2165
G2 X143.875 Y287.7835 Z-2.6667 I-0.25 J0.0
G2 Y288.2165 Z-3.3333 I0.125 J0.2165
G2 X144.0 Y288.25 Z-3.5 I0.125 J-0.2165
G2 X144.2165 Y287.875 I0.0 J-0.25
G2 X143.7835 I-0.2165 J0.125
G2 X144.0 Y288.25 I0.2165 J0.125
G0 Z10.0
G0 X144.25 Y192.0
G0 Z1.0
G1 F300.0 Z0.0
G2 F800.0 X143.875 Y191.7835 Z-0.6667 I-0.25 J0.0
G2 Y192.2165 Z-1.3333 I0.125 J0.2165
G2 X144.25 Y192.0 Z-2.0 I0.125 J-0.2165
G2 X143.875 Y191.7835 Z-2.6667 I-0.25 J0.0
G2 Y192.2165 Z-3.3333 I0.125 J0.2165
G2 X144.0 Y192.25 Z-3.5 I0.125 J-0.2165
G2 X144.2165 Y191.875 I0.0 J-0.25
G2 X143.7835 I-0.2165 J0.125
G2 X144.0 Y192.25 I0.2165 J0.125
G0 Z10.0
G0 X144.25 Y96.0
G0 Z1.0
G1 F300.0 Z0.0
G2 F800.0 X143.875 Y95.7835 Z-0.6667 I-0.25 J0.0
G2 Y96.2165 Z-1.3333 I0.125 J0.2165
G2 X144.25 Y96.0 Z-2.0 I0.125 J-0.2165
G2 X143.875 Y95.7835 Z-2.6667 I-0.25 J0.0
G2 Y96.2165 Z-3.3333 I0.125 J0.2165
G2 X144.0 Y96.25 Z-3.5 I0.125 J-0.2165
G2 X144.2165 Y95.875 I0.0 J-0.25
G2 X143.7835 I-0.2165 J0.125
G2 X144.0 Y96.25 I0.2165 J0.125
G0 Z10.0
G0 X144.25 Y14.0
G0 Z1.0
G1 F300.0 Z0.0
G2 F800.0 X143.875 Y13.7835 Z-0.6667 I-0.25 J0.0
G2 Y14.2165 Z-1.3333 I0.125 J0.2165
G2 X144.25 Y14.0 Z-2.0 I0.125 J-0.2165
G2 X143.875 Y13.7835 Z-2.6667 I-0.25 J0.0
G2 Y14.2165 Z-3.3333 I0.125 J0.2165
G2 X144.0 Y14.25 Z-3.5 I0.125 J-0.2165
G2 X144.2165 Y13.875 I0.0 J-0.25
G2 X143.7835 I-0.2165 J0.125
G2 X144.0 Y14.25 I0.2165 J0.125
G0 Z10.0
G0 X14.25 Y14.0
G0 Z1.0
G1 F300.0 Z0.0
G2 F800.0 X13.875 Y13.7835 Z-0.6667 I-0.25 J0.0
G2 Y14.2165 Z-1.3333 I0.125 J0.2165
G2 X14.25 Y14.0 Z-2.0 I0.125 J-0.2165
G2 X13.875 Y13.7835 Z-2.6667 I-0.25 J0.0
G2 Y14.2165 Z-3.3333 I0.125 J0.2165
G2 X14.0 Y14.25 Z-3.5 I0.125 J-0.2165
G2 X14.2165 Y13.875 I0.0 J-0.25
G2 X13.7835 I-0.2165 J0.125
G2 X14.0 Y14.25 I0.2165 J0.125
G0 Z10.0
G0 X14.25 Y96.0
G0 Z1.0
G1 F300.0 Z0.0
G2 F800.0 X13.875 Y95.7835 Z-0.6667 I-0.25 J0.0
G2 Y96.2165 Z-1.3333 I0.125 J0.2165
G2 X14.25 Y96.0 Z-2.0 I0.125 J-0.2165
G2 X13.875 Y95.7835 Z-2.6667 I-0.25 J0.0
G2 Y96.2165 Z-3.3333 I0.125 J0.2165
G2 X14.0 Y96.25 Z-3.5 I0.125 J-0.2165
G2 X14.2165 Y95.875 I0.0 J-0.25
G2 X13.7835 I-0.2165 J0.125
G2 X14.0 Y96.25 I0.2165 J0.125
G0 Z10.0
G0 X14.25 Y192.0
G0 Z1.0
G1 F300.0 Z0.0
G2 F800.0 X13.875 Y191.7835 Z-0.6667 I-0.25 J0.0
G2 Y192.2165 Z-1.3333 I0.125 J0.2165
G2 X14.25 Y192.0 Z-2.0 I0.125 J-0.2165
G2 X13.875 Y191.7835 Z-2.6667 I-0.25 J0.0
G2 Y192.2165 Z-3.3333 I0.125 J0.2165
G2 X14.0 Y192.25 Z-3.5 I0.125 J-0.2165
G2 X14.2165 Y191.875 I0.0 J-0.25
G2 X13.7835 I-0.2165 J0.125
G2 X14.0 Y192.25 I0.2165 J0.125
G0 Z10.0
G0 X14.25 Y288.0
G0 Z1.0
G1 F300.0 Z0.0
G2 F800.0 X13.875 Y287.7835 Z-0.6667 I-0.25 J0.0
G2 Y288.2165 Z-1.3333 I0.125 J0.2165
G2 X14.25 Y288.0 Z-2.0 I0.125 J-0.2165
G2 X13.875 Y287.7835 Z-2.6667 I-0.25 J0.0
G2 Y288.2165 Z-3.3333 I0.125 J0.2165
G2 X14.0 Y288.25 Z-3.5 I0.125 J-0.2165
G2 X14.2165 Y287.875 I0.0 J-0.25
G2 X13.7835 I-0.2165 J0.125
G2 X14.0 Y288.25 I0.2165 J0.125
G0 Z10.0
G0 X14.25 Y384.0
G0 Z1.0
G1 F300.0 Z0.0
G2 F800.0 X13.875 Y383.7835 Z-0.6667 I-0.25 J0.0
G2 Y384.2165 Z-1.3333 I0.125 J0.2165
G2 X14.25 Y384.0 Z-2.0 I0.125 J-0.2165
G2 X13.875 Y383.7835 Z-2.6667 I-0.25 J0.0
G2 Y384.2165 Z-3.3333 I0.125 J0.2165
G2 X14.0 Y384.25 Z-3.5 I0.125 J-0.2165
G2 X14.2165 Y383.875 I0.0 J-0.25
G2 X13.7835 I-0.2165 J0.125
G2 X14.0 Y384.25 I0.2165 J0.125
G0 Z10.0
G0 X14.25 Y480.0
G0 Z1.0
G1 F300.0 Z0.0
G2 F800.0 X13.875 Y479.7835 Z-0.6667 I-0.25 J0.0
G2 Y480.2165 Z-1.3333 I0.125 J0.2165
G2 X14.25 Y480.0 Z-2.0 I0.125 J-0.2165
G2 X13.875 Y479.7835 Z-2.6667 I-0.25 J0.0
G2 Y480.2165 Z-3.3333 I0.125 J0.2165
G2 X14.0 Y480.25 Z-3.5 I0.125 J-0.2165
G2 X14.2165 Y479.875 I0.0 J-0.25
G2 X13.7835 I-0.2165 J0.125
G2 X14.0 Y480.25 I0.2165 J0.125
G0 Z10.0
G0 X274.25 Y480.0
G0 Z1.0
G1 F300.0 Z0.0
G2 F800.0 X273.875 Y479.7835 Z-0.6667 I-0.25 J0.0
G2 Y480.2165 Z-1.3333 I0.125 J0.2165
G2 X274.25 Y480.0 Z-2.0 I0.125 J-0.2165
G2 X273.875 Y479.7835 Z-2.6667 I-0.25 J0.0
G2 Y480.2165 Z-3.3333 I0.125 J0.2165
G2 X274.0 Y480.25 Z-3.5 I0.125 J-0.2165
G2 X274.2165 Y479.875 I0.0 J-0.25
G2 X273.7835 I-0.2165 J0.125
G2 X274.0 Y480.25 I0.2165 J0.125
G0 Z10.0
G0 X274.25 Y384.0
G0 Z1.0
G1 F300.0 Z0.0
G2 F800.0 X273.875 Y383.7835 Z-0.6667 I-0.25 J0.0
G2 Y384.2165 Z-1.3333 I0.125 J0.2165
G2 X274.25 Y384.0 Z-2.0 I0.125 J-0.2165
G2 X273.875 Y383.7835 Z-2.6667 I-0.25 J0.0
G2 Y384.2165 Z-3.3333 I0.125 J0.2165
G2 X274.0 Y384.25 Z-3.5 I0.125 J-0.2165
G2 X274.2165 Y383.875 I0.0 J-0.25
G2 X273.7835 I-0.2165 J0.125
G2 X274.0 Y384.25 I0.2165 J0.125
G0 Z10.0
G0 X274.25 Y288.0
G0 Z1.0
G1 F300.0 Z0.0
G2 F800.0 X273.875 Y287.7835 Z-0.6667 I-0.25 J0.0
G2 Y288.2165 Z-1.3333 I0.125 J0.2165
G2 X274.25 Y288.0 Z-2.0 I0.125 J-0.2165
G2 X273.875 Y287.7835 Z-2.6667 I-0.25 J0.0
G2 Y288.2165 Z-3.3333 I0.125 J0.2165
G2 X274.0 Y288.25 Z-3.5 I0.125 J-0.2165
G2 X274.2165 Y287.875 I0.0 J-0.25
G2 X273.7835 I-0.2165 J0.125
G2 X274.0 Y288.25 I0.2165 J0.125
G0 Z10.0
G0 X274.25 Y192.0
G0 Z1.0
G1 F300.0 Z0.0
G2 F800.0 X273.875 Y191.7835 Z-0.6667 I-0.25 J0.0
G2 Y192.2165 Z-1.3333 I0.125 J0.2165
G2 X274.25 Y192.0 Z-2.0 I0.125 J-0.2165
G2 X273.875 Y191.7835 Z-2.6667 I-0.25 J0.0
G2 Y192.2165 Z-3.3333 I0.125 J0.2165
G2 X274.0 Y192.25 Z-3.5 I0.125 J-0.2165
G2 X274.2165 Y191.875 I0.0 J-0.25
G2 X273.7835 I-0.2165 J0.125
G2 X274.0 Y192.25 I0.2165 J0.125
G0 Z10.0
G0 X274.25 Y96.0
G0 Z1.0
G1 F300.0 Z0.0
G2 F800.0 X273.875 Y95.7835 Z-0.6667 I-0.25 J0.0
G2 Y96.2165 Z-1.3333 I0.125 J0.2165
G2 X274.25 Y96.0 Z-2.0 I0.125 J-0.2165
G2 X273.875 Y95.7835 Z-2.6667 I-0.25 J0.0
G2 Y96.2165 Z-3.3333 I0.125 J0.2165
G2 X274.0 Y96.25 Z-3.5 I0.125 J-0.2165
G2 X274.2165 Y95.875 I0.0 J-0.25
G2 X273.7835 I-0.2165 J0.125
G2 X274.0 Y96.25 I0.2165 J0.125
G0 Z10.0
G0 X274.25 Y14.0
G0 Z1.0
G1 F300.0 Z0.0
G2 F800.0 X273.875 Y13.7835 Z-0.6667 I-0.25 J0.0
G2 Y14.2165 Z-1.3333 I0.125 J0.2165
G2 X274.25 Y14.0 Z-2.0 I0.125 J-0.2165
G2 X273.875 Y13.7835 Z-2.6667 I-0.25 J0.0
G2 Y14.2165 Z-3.3333 I0.125 J0.2165
G2 X274.0 Y14.25 Z-3.5 I0.125 J-0.2165
G2 X274.2165 Y13.875 I0.0 J-0.25
G2 X273.7835 I-0.2165 J0.125
G2 X274.0 Y14.25 I0.2165 J0.125
G0 Z10.0
G0 X274.25 Y576.0
G0 Z1.0
G1 F300.0 Z0.0
G2 F800.0 X273.875 Y575.7835 Z-0.6667 I-0.25 J0.0
G2 Y576.2165 Z-1.3333 I0.125 J0.2165
G2 X274.25 Y576.0 Z-2.0 I0.125 J-0.2165
G2 X273.875 Y575.7835 Z-2.6667 I-0.25 J0.0
G2 Y576.2165 Z-3.3333 I0.125 J0.2165
G2 X274.0 Y576.25 Z-3.5 I0.125 J-0.2165
G2 X274.2165 Y575.875 I0.0 J-0.25
G2 X273.7835 I-0.2165 J0.125
G2 X274.0 Y576.25 I0.2165 J0.125
G0 Z10.0
G0 X274.25 Y658.0
G0 Z1.0
G1 F300.0 Z0.0
G2 F800.0 X273.875 Y657.7835 Z-0.6667 I-0.25 J0.0
G2 Y658.2165 Z-1.3333 I0.125 J0.2165
G2 X274.25 Y658.0 Z-2.0 I0.125 J-0.2165
G2 X273.875 Y657.7835 Z-2.6667 I-0.25 J0.0
G2 Y658.2165 Z-3.3333 I0.125 J0.2165
G2 X274.0 Y658.25 Z-3.5 I0.125 J-0.2165
G2 X274.2165 Y657.875 I0.0 J-0.25
G2 X273.7835 I-0.2165 J0.125
G2 X274.0 Y658.25 I0.2165 J0.125
G0 Z10.0
M5
M30
