( Made using CamBam - http://www.cambam.co.uk )
( front_Box 7/14/2020 5:44:25 PM )
( Post processor: Default )
( T2 : 2.0 )
G21 G90 G64 G40
G0 Z10.0
( T2 : 2.0 )
T2 M6
( Contour1 )
G17
M3 S3000
G0 X24.4142 Y652.0
G0 Z1.0
G1 F300.0 Z-3.5
G1 F800.0 X119.5858
G1 X124.0 Y647.5858
G1 Y600.4142
G1 X119.5858 Y596.0
G1 X24.4142
G1 X20.0 Y600.4142
G1 Y647.5858
G1 X24.4142 Y652.0
G0 Z10.0
G0 Y556.0
G0 Z1.0
G1 F300.0 Z-3.5
G1 F800.0 X119.5858
G1 X124.0 Y551.5858
G1 Y504.4142
G1 X119.5858 Y500.0
G1 X24.4142
G1 X20.0 Y504.4142
G1 Y551.5858
G1 X24.4142 Y556.0
G0 Z10.0
G0 Y460.0
G0 Z1.0
G1 F300.0 Z-3.5
G1 F800.0 X119.5858
G1 X124.0 Y455.5858
G1 Y408.4142
G1 X119.5858 Y404.0
G1 X24.4142
G1 X20.0 Y408.4142
G1 Y455.5858
G1 X24.4142 Y460.0
G0 Z10.0
G0 Y364.0
G0 Z1.0
G1 F300.0 Z-3.5
G1 F800.0 X119.5858
G1 X124.0 Y359.5858
G1 Y312.4142
G1 X119.5858 Y308.0
G1 X24.4142
G1 X20.0 Y312.4142
G1 Y359.5858
G1 X24.4142 Y364.0
G0 Z10.0
G0 Y268.0
G0 Z1.0
G1 F300.0 Z-3.5
G1 F800.0 X119.5858
G1 X124.0 Y263.5858
G1 Y216.4142
G1 X119.5858 Y212.0
G1 X24.4142
G1 X20.0 Y216.4142
G1 Y263.5858
G1 X24.4142 Y268.0
G0 Z10.0
G0 Y172.0
G0 Z1.0
G1 F300.0 Z-3.5
G1 F800.0 X119.5858
G1 X124.0 Y167.5858
G1 Y120.4142
G1 X119.5858 Y116.0
G1 X24.4142
G1 X20.0 Y120.4142
G1 Y167.5858
G1 X24.4142 Y172.0
G0 Z10.0
G0 Y76.0
G0 Z1.0
G1 F300.0 Z-3.5
G1 F800.0 X119.5858
G1 X124.0 Y71.5858
G1 Y24.4142
G1 X119.5858 Y20.0
G1 X24.4142
G1 X20.0 Y24.4142
G1 Y71.5858
G1 X24.4142 Y76.0
G0 Z10.0
G0 X164.0 Y71.5858
G0 Z1.0
G1 F300.0 Z-3.5
G1 F800.0 X168.4142 Y76.0
G1 X263.5858
G1 X268.0 Y71.5858
G1 Y24.4142
G1 X263.5858 Y20.0
G1 X168.4142
G1 X164.0 Y24.4142
G1 Y71.5858
G0 Z10.0
G0 X168.4142 Y116.0
G0 Z1.0
G1 F300.0 Z-3.5
G1 F800.0 X164.0 Y120.4142
G1 Y167.5858
G1 X168.4142 Y172.0
G1 X263.5858
G1 X268.0 Y167.5858
G1 Y120.4142
G1 X263.5858 Y116.0
G1 X168.4142
G0 Z10.0
G0 Y212.0
G0 Z1.0
G1 F300.0 Z-3.5
G1 F800.0 X164.0 Y216.4142
G1 Y263.5858
G1 X168.4142 Y268.0
G1 X263.5858
G1 X268.0 Y263.5858
G1 Y216.4142
G1 X263.5858 Y212.0
G1 X168.4142
G0 Z10.0
G0 Y308.0
G0 Z1.0
G1 F300.0 Z-3.5
G1 F800.0 X164.0 Y312.4142
G1 Y359.5858
G1 X168.4142 Y364.0
G1 X263.5858
G1 X268.0 Y359.5858
G1 Y312.4142
G1 X263.5858 Y308.0
G1 X168.4142
G0 Z10.0
G0 Y404.0
G0 Z1.0
G1 F300.0 Z-3.5
G1 F800.0 X164.0 Y408.4142
G1 Y455.5858
G1 X168.4142 Y460.0
G1 X263.5858
G1 X268.0 Y455.5858
G1 Y408.4142
G1 X263.5858 Y404.0
G1 X168.4142
G0 Z10.0
G0 Y500.0
G0 Z1.0
G1 F300.0 Z-3.5
G1 F800.0 X164.0 Y504.4142
G1 Y551.5858
G1 X168.4142 Y556.0
G1 X263.5858
G1 X268.0 Y551.5858
G1 Y504.4142
G1 X263.5858 Y500.0
G1 X168.4142
G0 Z10.0
G0 Y596.0
G0 Z1.0
G1 F300.0 Z-3.5
G1 F800.0 X164.0 Y600.4142
G1 Y647.5858
G1 X168.4142 Y652.0
G1 X263.5858
G1 X268.0 Y647.5858
G1 Y600.4142
G1 X263.5858 Y596.0
G1 X168.4142
G0 Z10.0
M5
M30
